src/images/icons/icon-plus-ellipse.svg

<svg width="50" height="51" viewBox="0 0 50 51" fill="none" xmlns="http://www.w3.org/2000/svg">
<circle cx="25" cy="25.787" r="24" stroke="black" stroke-width="2"/>
<g clip-path="url(#clip0_11423_1729)">
<path d="M33 24.787H26V17.787H24V24.787H17V26.787H24V33.787H26V26.787H33V24.787Z" fill="black"/>
</g>
<defs>
<clipPath id="clip0_11423_1729">
<rect width="16" height="16" fill="white" transform="translate(17 17.787)"/>
</clipPath>
</defs>
</svg>

<svg xmlns="http://www.w3.org/2000/svg" width="50" height="51" fill="none"><circle cx="25" cy="25.79" r="24" stroke="#000" stroke-width="2"/><g clip-path="url(#a)"><path fill="#000" d="M33 24.79h-7v-7h-2v7h-7v2h7v7h2v-7h7v-2Z"/></g><defs><clipPath id="a"><path fill="#fff" d="M17 17.79h16v16H17z"/></clipPath></defs></svg>
